src/pos-icons/map-clock-outline.svg

<svg height="24" viewBox="0 0 24 24" width="24" xmlns="http://www.w3.org/2000/svg"><path d="m15 12h1.5v4.25l2.86 1.69-.75 1.22-3.61-2.16zm1-3c.69 0 1.37.1 2 .29v-4.59l-3 1.16v3.21c.33-.07.66-.07 1-.07m7 7a7 7 0 0 1 -7 7c-3 0-5.6-1.92-6.58-4.6l-1.42-.5-5.34 2.07-.16.03a.5.5 0 0 1 -.5-.5v-15.12c0-.23.15-.41.36-.48l5.64-1.9 6 2.1 5.34-2.07.16-.03a.5.5 0 0 1 .5.5v7.75c1.81 1.25 3 3.37 3 5.75m-14 0c0-2.79 1.63-5.2 4-6.33v-3.8l-4-1.4v11.66c0-.04 0-.09 0-.13m7-5a5 5 0 0 0 -5 5 5 5 0 0 0 5 5 5 5 0 0 0 5-5 5 5 0 0 0 -5-5m-12-5.54v11.85l3-1.16v-11.7z"/></svg>

<?xml version="1.0" encoding="UTF-8"?><!DOCTYPE svg PUBLIC "-//W3C//DTD SVG 1.1//EN" "http://www.w3.org/Graphics/SVG/1.1/DTD/svg11.dtd"><svg xmlns="http://www.w3.org/2000/svg" xmlns:xlink="http://www.w3.org/1999/xlink" version="1.1" id="mdi-map-clock-outline" width="24" height="24" viewBox="0 0 24 24"><path d="M15,12H16.5V16.25L19.36,17.94L18.61,19.16L15,17V12M16,9C16.69,9 17.37,9.1 18,9.29V4.7L15,5.86V9.07C15.33,9 15.66,9 16,9M23,16A7,7 0 0,1 16,23C13,23 10.4,21.08 9.42,18.4L8,17.9L2.66,19.97L2.5,20A0.5,0.5 0 0,1 2,19.5V4.38C2,4.15 2.15,3.97 2.36,3.9L8,2L14,4.1L19.34,2.03L19.5,2A0.5,0.5 0 0,1 20,2.5V10.25C21.81,11.5 23,13.62 23,16M9,16C9,13.21 10.63,10.8 13,9.67V5.87L9,4.47V16.13H9C9,16.09 9,16.04 9,16M16,11A5,5 0 0,0 11,16A5,5 0 0,0 16,21A5,5 0 0,0 21,16A5,5 0 0,0 16,11M4,5.46V17.31L7,16.15V4.45L4,5.46Z" /></svg>
